X:1
T:Gloucester
T:C Major                    Jacob Kimball, 1793
T:Isaac Watts, 1719 (Psalm 136 Abridged)           88. 88. (L. M.)                               
T:Transcribed from Kimball's Rural Harmony, 1793.
%%score [ 1 2 3 4 ]
L:1/8
Q:1/4=70
M:3/4
K:C
V:1 treble nm="Tr." snm="Tr."
V:2 treble nm="C." snm="C."
V:3 treble-8 nm="T." snm="T."
V:4 bass nm="B." snm="B."
V:1
 z6 | z6 | z6 | z6 | z6 | z6 | z6 | z6 | %8
[M:2/4]"_1. Wonders  of    grace   to           God   be – long,""_1. Wonders  of    grace   to           God   be – long," c2 c c | %9
 B2 B2 | A2 A2 | G2 z2 | z4 | z4 | z4 | %15
 z2 z"_1. Re  –  peat    his        mer – cies    in        your     song.                                                                                    The  King  of   kings  with  glo  –  ry  crown:""_1. Re  –  peat    his        mer – cies    in        your     song.                                                                                    And  leads  us     to     his   hea–venly  seat;" B | %16
 cB ed | c2 A2 | G2 G2 | G4 |[M:3/4] z6 | z6 | z6 | z4 d2 | (c2 f2) e2 | d4 d2 | (c2 f2) e2 | %27
 d4 z2 |[M:2/4] z4 | z4 | %30
 z2"_1. His   mer – cy    ev  –  er    shall  en – dure,  When lords and kings                                When  lords    and       kings      are       known    no     more.\n2. His   mer – cy    ev  –  er    shall  en – dure,  When this  vain world                                When  this      vain      world     shall        be       no      more." G2 | %31
 c2 B2 | c2 G2 | E2 G2 | c3 G | c2 B2 | A4 | z4 | z2 G2 | GA Bc | d2 GB | c2 B2 | c4 |] %43
V:2
 z6 | z6 | z6 | z6 | z6 | z6 | z6 | z6 |[M:2/4] G2 G G | G2 G2 | ^F2 F2 | G2 z2 | z4 | z4 | z4 | %15
 z2 z"_1. Re  –  peat    his        mer – cies    in        your     song.    Give to  the   Lord          of      lords         re  – nown,\n2. Re  –  peat    his        mer – cies    in        your     song.   Thru'  this vain world      he     guides       our    feet," G | %16
 G2 G2 | G2 F2 | EF ED | E4 |[M:3/4] E2 E2 D2 | (E>F G2) F2 | (E>F G2) F2 | E4 z2 | z6 | z6 | z6 | %27
 z6 |[M:2/4] z4 | %29
 z2"_1. His    mer – cy     ev  –  er   shall  en  –  dure,                                                                                    When  lords    and       kings      are       known    no     more.\n2. His    mer – cy    ev  –  er    shall  en  –  dure,                                                                                    When  this      vain      world     shall        be       no      more." G2 | %30
 C2 B,2 | C2 G2 | E2 G2 | C4 | z4 | z4 | z4 | z4 | z2 E2 | G2 G2 | G2 G2 | G2 GF | E4 |] %43
V:3
"_1. Give to  the Lord  im – mor – tal  praise;        Mercy and  truth  are            all       his  ways:       Wonders  of    grace   to           God   be – long,                                                Re–\n2. He  sent his Son  with  power  to    save        From guilt and dark–ness,      and     the  grave;      Wonders  of     grace   to          God   be –  long,                                               Re–" c2 B2 c2 | %1
 G4 B2 | (c2 d2) e2 | (e2 d2) z2 | e2 d2 e2 | c4 cd/e/ | (d2 c2) B2 | c6 |[M:2/4] e2 e e | ed cB | %10
 c3 c | cB z2 | z4 | z2 z d | %14
"_1. –peat   his   mercies,  Re  –  peat    his        mer – cies    in        your     song.    Give to  the   Lord          of      lords         re  – nown,\n2. –peat   his   mercies,  Re  –  peat    his        mer – cies    in        your     song.   Thru'  this vain world      he     guides       our    feet," ed cd | %15
 e2 d d | ed gf | e2 dc | ed cB | c4 |[M:3/4] c2 c2 B2 | (c>d e2) d2 | (c>d e2) d2 | c4 z2 | z6 | %25
 z6 | z6 | z6 | %28
[M:2/4] z2"_1. His  mer – cy    ev  –  er     shall  en  – dure,                                                                                                      When  lords    and       kings      are       known    no     more.\n2. His   mer – cy    ev  –  er    shall  en  – dure,                                                                                                      When  this      vain      world     shall        be       no      more." G2 | %29
 c2 B2 | c2 G2 | E2 G2 | c4 | z4 | z4 | z4 | z4 | z4 | z2 c2 | e2 dc | B2 cd | e2 Td2 | c4 |] %43
V:4
 C,2 D,2 E,2 | C,4 G,2 | (E,2 D,2) C,2 | G,6 | C2 G,2 C2 | C,4 A,2 | (F,2 G,2) G,,2 | C,6 | %8
[M:2/4] C,2 E, C, | G,2 G,2 | D,2 D,2 | %11
 G,3"_1. Re – peat    his      mer – cies,""_1. Re – peat    his      mer – cies," G, | CB, A,G, | %13
 C2 G, z | z4 | %15
 z2 z"_1. Re  –  peat    his        mer – cies    in        your     song.                                                                                    And  leads  us     to     his   hea–venly seat;  His""_1. Re  –  peat    his        mer – cies    in        your     song.                                                                                    The  King  of   kings  with  glo – ry crown: His" G, | %16
 C,2 C,D, | E,2 F,2 | G,2 G,2 | C,4 |[M:3/4] z6 | z6 | z6 | z4 G,2 | (C2 B,2) C2 | G,4 G,2 | %26
 (C2 B,2) C2 | G,4 G,2 | %28
[M:2/4]"_1. mer – cy  ev –  er    shall  en  –  dure, _________________________                                   are  known no more,  When  lords    and       kings      are       known    no     more.\n2. mer – cy  ev  – er     shall  en  – dure, _________________________                                  shall   be     no  more,  When  this      vain      world     shall        be       no     more." C2 B,2 | %29
 C2 G,2 | E,2 G,2 | C,4- | C,4- | C,4- | C,3 z | z4 | z2 A,2 | G,2 F,2 | E,2 C,2 | C2 B,A, | %40
 G,F, E,D, | C,2 G,,2 | C,4 |] %43

